X: 1
T: The Duke Of Leinster
R: reel
M: 4/4
L: 1/8
K: Gmaj
D|:G2BG dGBc|dgeg dBAF|G2(3BAG dGBG|DBAB GEDE|
GABG dGBc|dgeg dBAF|GB~B2 GB~B2|1dBAB GEDE:|2dBAB GEDz||
|:dg~g2 bg~g2|agbg ageg|dega bgge|dBAB GEDz|
dega bg~g2|agbg agef|gbag efge|1dBAB GEDz:|2dBAB GEDE||


Tune 1385	Setting 14747

